X: 2
T:Bourr\'ee d'Aurore Sand majeure
G:Kazimodal
R:Bourr\'ee 2 temps
C:Traditionnel, similar to Lark camp 2015/04/02 v10 #16
Z:Ronan Keryell, arrangement http://kazimodal.trad.org
Q:1/4=145
P:C4
M:4/4
K:D
P:C
%%MIDI gchord c2ffccf2
%%MIDI chordprog 0
%%MIDI chordvol 80
%%MIDI bassprog 0
%%MIDI bassvol 127
%%MIDI program 68
%%%MIDI gchordoff
|: "D"D>E FG "F#m"A3 A | "G"Ad cd "A"A3 A | "G"dA "Bm"FD "Em"E3 F \
   |1 "G"GA Bc "A"B2 A2 :|2 "G"GA "A"Bc "D"d4 ||
|: "D"d2 d2 dc/B/ "F#m"A2 | "G"B2 B2 BA/G/ "D"F2 | DF AF "Em"EG B2 |\
   "A"AA Bc "D"d4 :|
